X: 6
T: Ai kuinka kauniilta kuuluupi
O: Trad Finland
Z: John Chambers <jc@trillian.mit.edu>
M: C|
L: 1/8
K: Am
|: "Am"A,2B,B, C2DD | "C"E2E2 "E7"E2E2 | "Am"cc "E7"BB "F"A2^GA | "G7"B2A2 "C"E4 :|
|: "Dm"G2FF "G7"E2DF | "Cmaj7"E2CB, "F"A,2A,2 | "Dm"C2B,C "E7"D2CC | "Am"B,2A,2 A,4 :|
%%sep 0 1 8cm
